images/info.svg

<svg width="15" height="15" viewBox="0 0 15 15" fill="none" xmlns="http://www.w3.org/2000/svg">
<circle cx="7.5" cy="7.5" r="7.5" fill="black" fill-opacity="0.09"/>
<path d="M7.13636 10V5.63636H7.80682V10H7.13636ZM7.47727 4.90909C7.34659 4.90909 7.2339 4.86458 7.1392 4.77557C7.0464 4.68655 7 4.57955 7 4.45455C7 4.32955 7.0464 4.22254 7.1392 4.13352C7.2339 4.04451 7.34659 4 7.47727 4C7.60795 4 7.7197 4.04451 7.8125 4.13352C7.9072 4.22254 7.95455 4.32955 7.95455 4.45455C7.95455 4.57955 7.9072 4.68655 7.8125 4.77557C7.7197 4.86458 7.60795 4.90909 7.47727 4.90909Z" fill="white"/>
</svg>

<svg xmlns="http://www.w3.org/2000/svg" width="15" height="15" fill="none"><circle cx="7.5" cy="7.5" r="7.5" fill="#000" fill-opacity=".09"/><path fill="#fff" d="M7.136 10V5.636h.67V10zm.341-5.09a.48.48 0 0 1-.338-.134A.43.43 0 0 1 7 4.455q0-.188.14-.321A.48.48 0 0 1 7.476 4q.196 0 .335.134a.43.43 0 0 1 .143.32.43.43 0 0 1-.143.322.47.47 0 0 1-.335.133"/></svg>
